svg/sale_outline.svg

<svg xmlns="http://www.w3.org/2000/svg" viewBox="0 0 24 24"><path d="M9.5 7c.83 0 1.5.67 1.5 1.5S10.33 10 9.5 10 8 9.33 8 8.5 8.67 7 9.5 7m5 7c.83 0 1.5.67 1.5 1.5s-.67 1.5-1.5 1.5-1.5-.67-1.5-1.5.67-1.5 1.5-1.5m-6.09 3L7 15.59 15.59 7 17 8.41zM18.65 2.85l.61 3.86 3.51 1.79L21 12l1.78 3.5-3.54 1.79-.61 3.86-3.89-.61-2.77 2.77-2.78-2.81-3.86.64-.62-3.89-3.49-1.78L3 11.97 1.23 8.5l3.51-1.81.61-3.82 3.87.63L12 .695l2.76 2.765zm1.45 6.52L17.5 8 17 5.11l-2.9.42L12 3.5 9.9 5.53 7 5.11 6.5 8 3.9 9.37 5.2 12l-1.3 2.63L6.5 16l.5 2.89 2.9-.42L12 20.5l2.1-2.03 2.9.42.5-2.89 2.6-1.37L18.8 12z"/></svg>

<svg xmlns="http://www.w3.org/2000/svg" id="mdi-sale-outline" viewBox="0 0 24 24"><path d="M9.5 7C10.33 7 11 7.67 11 8.5C11 9.33 10.33 10 9.5 10C8.67 10 8 9.33 8 8.5C8 7.67 8.67 7 9.5 7M14.5 14C15.33 14 16 14.67 16 15.5C16 16.33 15.33 17 14.5 17C13.67 17 13 16.33 13 15.5C13 14.67 13.67 14 14.5 14M8.41 17L7 15.59L15.59 7L17 8.41L8.41 17M18.65 2.85L19.26 6.71L22.77 8.5L21 12L22.78 15.5L19.24 17.29L18.63 21.15L14.74 20.54L11.97 23.31L9.19 20.5L5.33 21.14L4.71 17.25L1.22 15.47L3 11.97L1.23 8.5L4.74 6.69L5.35 2.87L9.22 3.5L12 .695L14.76 3.46L18.65 2.85M20.1 9.37L17.5 8L17 5.11L14.1 5.53L12 3.5L9.9 5.53L7 5.11L6.5 8L3.9 9.37L5.2 12L3.9 14.63L6.5 16L7 18.89L9.9 18.47L12 20.5L14.1 18.47L17 18.89L17.5 16L20.1 14.63L18.8 12L20.1 9.37Z" /></svg>
